; generated by PrusaSlicer 2.5.0+win64 on 2023-08-30 at 14:33:26 UTC

; 

; external perimeters extrusion width = 0.60mm
; perimeters extrusion width = 0.50mm
; infill extrusion width = 0.50mm
; solid infill extrusion width = 0.50mm
; top infill extrusion width = 0.45mm
; first layer extrusion width = 0.42mm

; external perimeters extrusion width = 0.60mm
; perimeters extrusion width = 0.50mm
; infill extrusion width = 0.50mm
; solid infill extrusion width = 0.50mm
; top infill extrusion width = 0.45mm
; first layer extrusion width = 0.42mm

; external perimeters extrusion width = 0.60mm
; perimeters extrusion width = 0.50mm
; infill extrusion width = 0.50mm
; solid infill extrusion width = 0.50mm
; top infill extrusion width = 0.45mm
; first layer extrusion width = 0.42mm

; external perimeters extrusion width = 0.60mm
; perimeters extrusion width = 0.50mm
; infill extrusion width = 0.50mm
; solid infill extrusion width = 0.50mm
; top infill extrusion width = 0.45mm
; first layer extrusion width = 0.42mm

M73 P0 R42
M73 Q0 S42
M107
;TYPE:Custom
M862.3 P "MK3S" ; printer model check
M862.1 P0.4 ; nozzle diameter check
M115 U3.9.3 ; tell printer latest fw version
G90 ; use absolute coordinates
M83 ; extruder relative mode
M104 S215 ; set extruder temp
M140 S60 ; set bed temp
M190 S60 ; wait for bed temp
M109 S215 ; wait for extruder temp
G28 W ; home all without mesh bed level
G80 ; mesh bed leveling
G1 Y-3.0 F1000.0 ; go outside print area
G92 E0.0
G1 X60.0 E9.0 F1000.0 ; intro line
G1 X100.0 E12.5 F1000.0 ; intro line
G92 E0.0
M221 S95

; Don't change E values below. Excessive value can damage the printer.

M907 E538 ; set extruder motor current
G21 ; set units to millimeters
G90 ; use absolute coordinates
M83 ; use relative distances for extrusion
M900 K0.05 ; Filament gcode LA 1.5
M900 K30 ; Filament gcode LA 1.0
M107
;LAYER_CHANGE
;Z:0.2
;HEIGHT:0.2
;BEFORE_LAYER_CHANGE
G92 E0.0
;0.2


G1 E-.8 F2100
G1 Z.4 F10800
;AFTER_LAYER_CHANGE
;0.2
G1 X76.559 Y64.016
G1 Z.2
G1 E.8 F2100
M204 S1000
;TYPE:Skirt/Brim
;WIDTH:0.42
G1 F1200
G1 X79.297 Y60.74 E.13387
G1 X83.17 Y57.621 E.15592
G1 X87.577 Y55.317 E.15592
G1 X92.349 Y53.918 E.15592
G1 X96.915 Y53.469 E.14386
G1 X150.777 Y49.978 E1.69236
G1 X151.395 Y50.019 E.0194
G1 X160.828 Y51.895 E.30156
G1 X161.685 Y52.25 E.02908
G1 X169.682 Y57.593 E.30156
G1 X170.338 Y58.249 E.02908
G1 X175.681 Y66.246 E.30156
G1 X176.036 Y67.103 E.02908
G1 X177.913 Y76.536 E.30156
G1 X177.958 Y77.022 E.01531
G1 X177.388 Y133.464 E1.76977
G1 X175.551 Y142.696 E.29514
M73 P0 R41
G1 X175.196 Y143.553 E.02908
G1 X169.967 Y151.38 E.29514
G1 X169.311 Y152.035 E.02908
G1 X161.484 Y157.265 E.29514
G1 X160.627 Y157.62 E.02908
G1 X151.395 Y159.456 E.29514
G1 X150.786 Y159.498 E.01912
G1 X96.955 Y156.214 E1.69097
G1 X92.38 Y155.765 E.14415
M73 Q0 S41
G1 X87.608 Y154.365 E.15592
G1 X82.814 Y151.803 E.17045
G1 X79.329 Y148.942 E.14137
G1 X76.425 Y145.476 E.14178
G1 X75.88 Y144.74 E.02871
G1 X73.754 Y140.764 E.14137
G1 X72.267 Y136.018 E.15592
G1 X71.734 Y131.074 E.15592
G1 X71.703 Y78.608 E1.64503
G1 X72.145 Y74.121 E.14137
G1 X73.545 Y69.35 E.15592
M73 P1 R41
M73 Q1 S41
G1 X76.108 Y64.555 E.17045
G1 X76.52 Y64.062 E.02016
; printing object rotarytimerA_bottom.stl id:2 copy 0
;WIPE_START
G1 F8640
G1 X78.631 Y61.537 E-.76
;WIPE_END
G1 E-.04 F2100
G1 Z.6 F10800
G1 X127.634 Y77
G1 Z.2
G1 E.8 F2100
;TYPE:Perimeter
;WIDTH:0.419999
G1 F1200
G1 X129.407 Y68.084 E.28502
G1 X134.457 Y60.526 E.28502
G1 X142.016 Y55.476 E.28502
G1 X150.931 Y53.702 E.28502
G1 X159.847 Y55.476 E.28502
G1 X167.405 Y60.526 E.28502
G1 X172.455 Y68.084 E.28502
G1 X174.229 Y77 E.28502
G1 X172.455 Y85.916 E.28502
G1 X167.405 Y93.474 E.28502
G1 X159.847 Y98.524 E.28502
G1 X150.931 Y100.298 E.28502
G1 X142.016 Y98.524 E.28502
G1 X134.457 Y93.474 E.28502
G1 X129.407 Y85.916 E.28502
G1 X127.645 Y77.059 E.28314
G1 X127.249 Y77 F10800
;TYPE:External perimeter
G1 F1200
G1 X129.052 Y67.937 E.28972
G1 X134.185 Y60.254 E.28972
G1 X141.868 Y55.121 E.28972
G1 X150.931 Y53.318 E.28972
G1 X159.994 Y55.121 E.28972
G1 X167.677 Y60.254 E.28972
G1 X172.81 Y67.937 E.28972
G1 X174.613 Y77 E.28972
G1 X172.81 Y86.063 E.28972
G1 X167.677 Y93.746 E.28972
G1 X159.994 Y98.879 E.28972
G1 X150.931 Y100.682 E.28972
G1 X141.868 Y98.879 E.28972
G1 X134.185 Y93.746 E.28972
G1 X129.052 Y86.063 E.28972
G1 X127.261 Y77.059 E.28784
G1 X127.596 Y76.8 F10800
;WIPE_START
G1 F8640
G1 X127.895 Y73.829 E-.76
;WIPE_END
G1 E-.04 F2100
G1 Z.6 F10800
G1 X164.993 Y59.051
G1 Z.2
G1 E.8 F2100
;TYPE:Solid infill
;WIDTH:0.420178
G1 F1200
G1 X168.265 Y62.323 E.14515
G1 X169.34 Y63.931 E.06066
G1 X164 Y58.592 E.23686
G1 X162.393 Y57.517 E.06066
G1 X170.414 Y65.539 E.35585
G1 X171.488 Y67.146 E.06066
G1 X160.785 Y56.443 E.47484
G1 X159.736 Y55.742 E.03955
G1 X159.505 Y55.696 E.00741
G1 X172.235 Y68.427 E.56475
G1 X172.367 Y69.093 E.0213
G1 X158.839 Y55.564 E.60017
G1 X158.173 Y55.431 E.0213
G1 X172.5 Y69.759 E.63559
G1 X172.632 Y70.425 E.0213
G1 X157.507 Y55.299 E.67102
G1 X156.841 Y55.166 E.0213
G1 X172.765 Y71.091 E.70644
G1 X172.897 Y71.757 E.0213
G1 X156.175 Y55.034 E.74186
G1 X155.509 Y54.901 E.0213
M73 P2 R41
M73 Q2 S41
G1 X173.03 Y72.423 E.77728
G1 X173.162 Y73.089 E.0213
G1 X154.843 Y54.769 E.81271
G1 X154.177 Y54.636 E.0213
G1 X173.295 Y73.755 E.84813
G1 X173.427 Y74.421 E.0213
G1 X153.511 Y54.504 E.88355
G1 X152.845 Y54.371 E.0213
G1 X173.56 Y75.087 E.91897
G1 X173.692 Y75.753 E.0213
G1 X152.179 Y54.239 E.9544
G1 X151.513 Y54.107 E.0213
G1 X173.825 Y76.419 E.98982
G1 X173.94 Y77 E.0186
G1 X173.929 Y77.056 E.00181
G1 X150.875 Y54.002 E1.02275
G1 X150.43 Y54.091 E.01423
G1 X173.841 Y77.501 E1.03857
G1 X173.752 Y77.946 E.01423
G1 X149.985 Y54.179 E1.05438
G1 X149.54 Y54.268 E.01423
G1 X173.664 Y78.391 E1.0702
G1 X173.575 Y78.836 E.01423
G1 X149.095 Y54.356 E1.08601
G1 X148.65 Y54.445 E.01423
G1 X173.486 Y79.281 E1.10183
G1 X173.398 Y79.726 E.01423
G1 X148.205 Y54.533 E1.11764
G1 X147.76 Y54.622 E.01423
G1 X173.309 Y80.172 E1.13346
G1 X173.221 Y80.617 E.01423
M73 P2 R40
G1 X147.315 Y54.71 E1.14927
G1 X146.87 Y54.799 E.01423
M73 P3 R40
M73 Q3 S41
G1 X173.132 Y81.062 E1.16509
G1 X173.044 Y81.507 E.01423
G1 X146.425 Y54.887 E1.1809
G1 X145.98 Y54.976 E.01423
M73 Q3 S40
G1 X172.955 Y81.952 E1.19672
G1 X172.867 Y82.397 E.01423
G1 X145.535 Y55.064 E1.21253
G1 X145.09 Y55.153 E.01423
G1 X172.778 Y82.842 E1.22835
G1 X172.69 Y83.287 E.01423
G1 X144.645 Y55.241 E1.24416
G1 X144.2 Y55.33 E.01423
G1 X172.601 Y83.732 E1.25998
G1 X172.513 Y84.177 E.01423
G1 X143.755 Y55.418 E1.27579
G1 X143.31 Y55.507 E.01423
G1 X172.424 Y84.622 E1.29161
G1 X172.336 Y85.067 E.01423
G1 X142.865 Y55.595 E1.30742
G1 X142.42 Y55.684 E.01423
G1 X172.247 Y85.512 E1.32324
G1 X172.189 Y85.805 E.00939
G1 X172.116 Y85.914 E.0041
G1 X142.017 Y55.815 E1.33527
G1 X141.697 Y56.029 E.01207
M73 Q4 S40
G1 X171.902 Y86.234 E1.33998
G1 X171.689 Y86.554 E.01207
M73 P4 R40
G1 X141.377 Y56.242 E1.34469
G1 X141.058 Y56.456 E.01207
G1 X171.475 Y86.873 E1.3494
G1 X171.261 Y87.193 E.01207
G1 X140.738 Y56.67 E1.3541
G1 X140.418 Y56.883 E.01207
G1 X171.048 Y87.513 E1.35881
G1 X170.834 Y87.833 E.01207
G1 X140.098 Y57.097 E1.36352
G1 X139.778 Y57.311 E.01207
G1 X170.62 Y88.153 E1.36823
G1 X170.407 Y88.473 E.01207
G1 X139.459 Y57.525 E1.37294
G1 X139.139 Y57.738 E.01207
G1 X170.193 Y88.792 E1.37764
G1 X169.979 Y89.112 E.01207
G1 X138.819 Y57.952 E1.38235
G1 X138.499 Y58.166 E.01207
G1 X169.765 Y89.432 E1.38706
G1 X169.552 Y89.752 E.01207
G1 X138.179 Y58.379 E1.39177
G1 X137.859 Y58.593 E.01207
M73 P5 R40
M73 Q5 S40
G1 X169.338 Y90.072 E1.39648
G1 X169.124 Y90.392 E.01207
G1 X137.54 Y58.807 E1.40118
G1 X137.22 Y59.02 E.01207
G1 X168.911 Y90.711 E1.40589
G1 X168.697 Y91.031 E.01207
M73 P5 R39
G1 X136.9 Y59.234 E1.4106
G1 X136.58 Y59.448 E.01207
G1 X168.483 Y91.351 E1.41531
G1 X168.27 Y91.671 E.01207
G1 X136.26 Y59.662 E1.42002
G1 X135.94 Y59.875 E.01207
M73 Q5 S39
G1 X168.056 Y91.991 E1.42472
G1 X167.842 Y92.31 E.01207
G1 X135.621 Y60.089 E1.42943
G1 X135.301 Y60.303 E.01207
G1 X167.628 Y92.63 E1.43414
G1 X167.415 Y92.95 E.01207
G1 X134.981 Y60.516 E1.43885
G1 X134.661 Y60.73 E.01207
G1 X167.201 Y93.27 E1.44355
G1 X166.881 Y93.484 E.01207
M73 P6 R39
M73 Q6 S39
G1 X134.447 Y61.05 E1.43885
G1 X134.234 Y61.37 E.01207
G1 X166.561 Y93.697 E1.43414
G1 X166.242 Y93.911 E.01207
G1 X134.02 Y61.69 E1.42943
G1 X133.806 Y62.009 E.01207
G1 X165.922 Y94.125 E1.42472
G1 X165.602 Y94.338 E.01207
G1 X133.593 Y62.329 E1.42001
G1 X133.379 Y62.649 E.01207
G1 X165.282 Y94.552 E1.41531
G1 X164.962 Y94.766 E.01207
G1 X133.165 Y62.969 E1.4106
G1 X132.952 Y63.289 E.01207
G1 X164.642 Y94.98 E1.40589
G1 X164.323 Y95.193 E.01207
G1 X132.738 Y63.609 E1.40118
G1 X132.524 Y63.928 E.01207
G1 X164.003 Y95.407 E1.39647
G1 X163.683 Y95.621 E.01207
G1 X132.31 Y64.248 E1.39177
G1 X132.097 Y64.568 E.01207
M73 P7 R39
M73 Q7 S39
G1 X163.363 Y95.834 E1.38706
G1 X163.043 Y96.048 E.01207
G1 X131.883 Y64.888 E1.38235
G1 X131.669 Y65.208 E.01207
G1 X162.724 Y96.262 E1.37764
G1 X162.404 Y96.475 E.01207
G1 X131.456 Y65.527 E1.37294
G1 X131.242 Y65.847 E.01207
G1 X162.084 Y96.689 E1.36823
G1 X161.764 Y96.903 E.01207
G1 X131.028 Y66.167 E1.36352
G1 X130.815 Y66.487 E.01207
G1 X161.444 Y97.117 E1.35881
G1 X161.124 Y97.33 E.01207
G1 X130.601 Y66.807 E1.3541
G1 X130.387 Y67.127 E.01207
M73 P7 R38
G1 X160.805 Y97.544 E1.3494
G1 X160.485 Y97.758 E.01207
G1 X130.173 Y67.446 E1.34469
G1 X129.96 Y67.766 E.01207
M73 Q7 S38
G1 X160.165 Y97.971 E1.33998
G1 X159.845 Y98.185 E.01207
G1 X129.746 Y68.086 E1.33527
G1 X129.673 Y68.195 E.0041
M73 P8 R38
M73 Q8 S38
G1 X129.615 Y68.488 E.00939
G1 X159.443 Y98.316 E1.32323
G1 X158.998 Y98.405 E.01423
G1 X129.526 Y68.933 E1.30742
G1 X129.438 Y69.378 E.01423
G1 X158.553 Y98.493 E1.2916
G1 X158.108 Y98.582 E.01423
G1 X129.349 Y69.823 E1.27579
G1 X129.261 Y70.269 E.01423
G1 X157.663 Y98.67 E1.25997
G1 X157.218 Y98.759 E.01423
G1 X129.172 Y70.714 E1.24416
G1 X129.084 Y71.159 E.01423
G1 X156.773 Y98.847 E1.22834
G1 X156.328 Y98.936 E.01423
G1 X128.995 Y71.604 E1.21253
G1 X128.907 Y72.049 E.01423
G1 X155.883 Y99.024 E1.19671
G1 X155.438 Y99.113 E.01423
G1 X128.818 Y72.494 E1.1809
G1 X128.73 Y72.939 E.01423
G1 X154.993 Y99.201 E1.16509
G1 X154.548 Y99.29 E.01423
G1 X128.641 Y73.384 E1.14927
G1 X128.553 Y73.829 E.01423
M73 P9 R38
M73 Q9 S38
G1 X154.103 Y99.378 E1.13346
G1 X153.658 Y99.467 E.01423
G1 X128.464 Y74.274 E1.11764
G1 X128.376 Y74.719 E.01423
G1 X153.213 Y99.555 E1.10183
G1 X152.768 Y99.644 E.01423
G1 X128.287 Y75.164 E1.08601
G1 X128.199 Y75.609 E.01423
G1 X152.323 Y99.732 E1.0702
G1 X151.878 Y99.821 E.01423
G1 X128.11 Y76.054 E1.05438
G1 X128.022 Y76.499 E.01423
G1 X151.433 Y99.909 E1.03857
G1 X150.988 Y99.998 E.01423
G1 X127.933 Y76.944 E1.02275
G1 X127.922 Y77 E.0018
G1 X128.038 Y77.582 E.0186
G1 X150.35 Y99.893 E.98981
G1 X149.684 Y99.761 E.0213
G1 X128.17 Y78.248 E.95439
G1 X128.303 Y78.914 E.0213
G1 X149.018 Y99.629 E.91897
G1 X148.352 Y99.496 E.0213
G1 X128.435 Y79.58 E.88355
G1 X128.568 Y80.246 E.0213
G1 X147.686 Y99.364 E.84813
G1 X147.02 Y99.231 E.0213
G1 X128.7 Y80.912 E.8127
G1 X128.833 Y81.578 E.0213
G1 X146.354 Y99.099 E.77728
G1 X145.688 Y98.966 E.0213
G1 X128.965 Y82.244 E.74186
G1 X129.097 Y82.91 E.0213
M73 P10 R38
M73 Q10 S38
G1 X145.022 Y98.834 E.70644
G1 X144.356 Y98.701 E.0213
M73 P10 R37
G1 X129.23 Y83.576 E.67101
G1 X129.362 Y84.242 E.0213
G1 X143.69 Y98.569 E.63559
G1 X143.024 Y98.436 E.0213
G1 X129.495 Y84.908 E.60017
G1 X129.627 Y85.574 E.0213
G1 X142.358 Y98.304 E.56475
G1 X142.126 Y98.258 E.00741
G1 X141.077 Y97.557 E.03956
G1 X130.374 Y86.854 E.47482
G1 X131.448 Y88.462 E.06066
G1 X139.469 Y96.483 E.35583
M73 Q10 S37
G1 X137.862 Y95.408 E.06066
G1 X132.523 Y90.07 E.23684
G1 X133.597 Y91.677 E.06066
G1 X136.869 Y94.949 E.14514
; stop printing object rotarytimerA_bottom.stl id:2 copy 0
; printing object rotarytimer_pcb02.stl id:1 copy 0
;WIPE_START
G1 F8640
G1 X134.541 Y92.622 E-.76
;WIPE_END
G1 E-.04 F2100
G1 Z.6 F10800
G1 X117.587 Y87.34
G1 Z.2
G1 E.8 F2100
;TYPE:Perimeter
;WIDTH:0.419999
G1 F1200
G1 X115.535 Y91.18 E.13651
G1 X112.773 Y94.546 E.13651
G1 X109.408 Y97.308 E.13651
G1 X105.568 Y99.36 E.13651
G1 X101.402 Y100.624 E.13651
G1 X97.069 Y101.05 E.13651
G1 X92.736 Y100.624 E.13651
G1 X88.57 Y99.36 E.13651
G1 X84.73 Y97.308 E.13651
G1 X81.365 Y94.546 E.13651
G1 X78.603 Y91.18 E.13651
G1 X76.55 Y87.34 E.13651
G1 X75.287 Y83.174 E.13651
G1 X74.86 Y78.841 E.13651
G1 X75.287 Y74.509 E.13651
G1 X76.55 Y70.342 E.13651
G1 X78.603 Y66.503 E.13651
G1 X81.365 Y63.137 E.13651
G1 X84.73 Y60.375 E.13651
G1 X88.57 Y58.323 E.13651
G1 X92.736 Y57.059 E.13651
G1 X97.069 Y56.632 E.13651
G1 X101.402 Y57.059 E.13651
G1 X105.568 Y58.323 E.13651
G1 X109.408 Y60.375 E.13651
G1 X112.773 Y63.137 E.13651
G1 X115.535 Y66.503 E.13651
G1 X117.587 Y70.342 E.13651
G1 X118.851 Y74.509 E.13651
G1 X119.278 Y78.841 E.13651
G1 X118.851 Y83.174 E.13651
G1 X117.605 Y87.283 E.13463
G1 X117.937 Y87.485 F10800
;TYPE:External perimeter
G1 F1200
G1 X115.85 Y91.391 E.13884
G1 X113.041 Y94.814 E.13884
G1 X109.618 Y97.623 E.13884
G1 X105.713 Y99.71 E.13884
G1 X101.476 Y100.995 E.13884
G1 X97.069 Y101.429 E.13884
G1 X92.662 Y100.995 E.13884
G1 X88.425 Y99.71 E.13884
G1 X84.52 Y97.623 E.13884
G1 X81.097 Y94.814 E.13884
G1 X78.288 Y91.391 E.13884
G1 X76.2 Y87.485 E.13884
G1 X74.915 Y83.248 E.13884
G1 X74.481 Y78.841 E.13884
G1 X74.915 Y74.435 E.13884
G1 X76.2 Y70.197 E.13884
G1 X78.288 Y66.292 E.13884
G1 X81.097 Y62.869 E.13884
G1 X84.52 Y60.06 E.13884
G1 X88.425 Y57.973 E.13884
G1 X92.662 Y56.687 E.13884
G1 X97.069 Y56.253 E.13884
G1 X101.476 Y56.687 E.13884
G1 X105.713 Y57.973 E.13884
G1 X109.618 Y60.06 E.13884
G1 X113.041 Y62.869 E.13884
G1 X115.85 Y66.292 E.13884
G1 X117.937 Y70.197 E.13884
G1 X119.223 Y74.435 E.13884
G1 X119.657 Y78.841 E.13884
G1 X119.223 Y83.248 E.13884
G1 X117.955 Y87.428 E.13696
G1 X117.541 Y87.538 F10800
;WIPE_START
G1 F8640
G1 X116.411 Y90.335 E-.76
;WIPE_END
G1 E-.04 F2100
G1 Z.6 F10800
G1 X104.498 Y76.985
G1 Z.2
G1 E.8 F2100
;TYPE:Perimeter
G1 F1200
G1 X104.846 Y77.18 E.0125
G1 X105.147 Y77.441 E.01252
G1 X105.392 Y77.757 E.01252
G1 X105.571 Y78.114 E.01251
G1 X105.676 Y78.499 E.01252
G1 X105.704 Y78.897 E.01252
G1 X105.654 Y79.293 E.01252
G1 X105.528 Y79.672 E.01252
G1 X105.33 Y80.018 E.01252
G1 X105.069 Y80.32 E.01252
G1 X104.754 Y80.565 E.01252
G1 X104.397 Y80.743 E.01252
G1 X104.012 Y80.849 E.01252
G1 X103.613 Y80.877 E.01252
G1 X103.217 Y80.827 E.01252
G1 X102.839 Y80.701 E.01252
G1 X102.492 Y80.503 E.01252
G1 X102.161 Y80.206 E.01393
G1 X101.973 Y79.971 E.00945
G1 X101.767 Y79.569 E.01416
G1 X101.662 Y79.184 E.01252
G1 X101.633 Y78.786 E.01252
G1 X101.683 Y78.39 E.01252
G1 X101.81 Y78.011 E.01252
G1 X102.007 Y77.664 E.01252
G1 X102.269 Y77.363 E.01252
G1 X102.627 Y77.095 E.01401
G1 X102.941 Y76.94 E.011
G1 X103.382 Y76.832 E.01422
G1 X103.956 Y76.831 E.01801
G1 X104.444 Y76.959 E.01583
G1 X104.321 Y77.315 F10800
;TYPE:External perimeter
G1 F1200
G1 X104.607 Y77.471 E.0102
G1 X104.856 Y77.681 E.0102
G1 X105.06 Y77.934 E.01021
G1 X105.21 Y78.223 E.0102
G1 X105.301 Y78.536 E.0102
G1 X105.329 Y78.86 E.0102
G1 X105.294 Y79.183 E.0102
G1 X105.196 Y79.494 E.0102
G1 X105.039 Y79.779 E.0102
G1 X104.83 Y80.028 E.01021
G1 X104.576 Y80.232 E.0102
G1 X104.287 Y80.382 E.0102
G1 X103.975 Y80.473 E.0102
G1 X103.65 Y80.502 E.0102
G1 X103.327 Y80.466 E.0102
G1 X103.016 Y80.368 E.0102
G1 X102.731 Y80.211 E.0102
G1 X102.453 Y79.967 E.01162
G1 X102.287 Y79.763 E.00823
G1 X102.128 Y79.46 E.01075
G1 X102.037 Y79.147 E.01021
G1 X102.009 Y78.823 E.0102
G1 X102.044 Y78.499 E.0102
G1 X102.142 Y78.189 E.0102
G1 X102.299 Y77.904 E.0102
G1 X102.508 Y77.654 E.01021
G1 X102.804 Y77.428 E.0117
G1 X103.051 Y77.301 E.00869
G1 X103.382 Y77.209 E.01077
G1 X103.956 Y77.209 E.01801
G1 X104.264 Y77.298 E.01005
G1 X104.575 Y77.111 F10800
;WIPE_START
G1 F8640
G1 X104.607 Y77.471 E-.08872
G1 X104.856 Y77.681 E-.07515
G1 X105.06 Y77.934 E-.07515
G1 X105.21 Y78.223 E-.07515
G1 X105.301 Y78.536 E-.07515
G1 X105.329 Y78.86 E-.07515
G1 X105.294 Y79.183 E-.07515
