; generated by PrusaSlicer 2.3.1+win64 on 2021-12-18 at 19:18:07 UTC

; 

; external perimeters extrusion width = 0.45mm
; perimeters extrusion width = 0.45mm
; infill extrusion width = 0.45mm
; solid infill extrusion width = 0.45mm
; top infill extrusion width = 0.40mm
; first layer extrusion width = 0.42mm

M73 P0 R25
M73 Q0 S25
M201 X1000 Y1000 Z200 E5000 ; sets maximum accelerations, mm/sec^2
M203 X200 Y200 Z12 E120 ; sets maximum feedrates, mm/sec
M204 P1250 R1250 T1250 ; sets acceleration (P, T) and retract acceleration (R), mm/sec^2
M205 X8.00 Y8.00 Z0.40 E4.50 ; sets the jerk limits, mm/sec
M205 S0 T0 ; sets the minimum extruding and travel feed rate, mm/sec
M107
;TYPE:Custom
M862.3 P "MK3S" ; printer model check
M862.1 P0.4 ; nozzle diameter check
M115 U3.9.3 ; tell printer latest fw version
G90 ; use absolute coordinates
M83 ; extruder relative mode
M104 S215 ; set extruder temp
M140 S60 ; set bed temp
M190 S60 ; wait for bed temp
M109 S215 ; wait for extruder temp
G28 W ; home all without mesh bed level
G80 ; mesh bed leveling
G1 Y-3.0 F1000.0 ; go outside print area
G92 E0.0
G1 X60.0 E9.0 F1000.0 ; intro line
G1 X100.0 E12.5 F1000.0 ; intro line
G92 E0.0
M221 S95

; Don't change E values below. Excessive value can damage the printer.
M907 E430 ; set extruder motor current
G21 ; set units to millimeters
G90 ; use absolute coordinates
M83 ; use relative distances for extrusion
M900 K0.05 ; Filament gcode LA 1.5
M900 K30 ; Filament gcode LA 1.0
;LAYER_CHANGE
;Z:0.2
;HEIGHT:0.2
;BEFORE_LAYER_CHANGE
G92 E0.0
;0.2


G1 E-0.80000 F2100.000
G1 Z0.400 F10800.000
;AFTER_LAYER_CHANGE
;0.2
G1 X99.572 Y67.413
G1 Z0.200
G1 E0.80000 F2100.000
M204 S1000
;TYPE:Skirt
;WIDTH:0.42
G1 F1200.000
G1 X100.091 Y66.897 E0.02296
G1 X100.743 Y66.563 E0.02296
G1 X101.465 Y66.443 E0.02296
G1 X148.515 Y66.443 E1.47523
G1 X149.235 Y66.555 E0.02284
G1 X149.887 Y66.881 E0.02284
G1 X150.409 Y67.388 E0.02284
G1 X150.754 Y68.030 E0.02284
G1 X165.310 Y112.828 E1.47690
G1 X165.419 Y113.541 E0.02260
G1 X165.310 Y114.253 E0.02260
G1 X164.979 Y114.919 E0.02331
G1 X164.459 Y115.450 E0.02331
G1 X126.379 Y143.117 E1.47583
M73 P0 R24
G1 X125.899 Y143.381 E0.01716
G1 X125.372 Y143.528 E0.01716
G1 X124.825 Y143.551 E0.01716
G1 X124.288 Y143.448 E0.01716
G1 X123.607 Y143.106 E0.02390
G1 X85.503 Y115.421 E1.47678
M73 P1 R24
M73 Q1 S24
G1 X85.008 Y114.901 E0.02249
G1 X84.690 Y114.254 E0.02260
G1 X84.581 Y113.542 E0.02260
G1 X84.690 Y112.829 E0.02260
G1 X99.235 Y68.063 E1.47583
G1 X99.544 Y67.467 E0.02108
; printing object chefstar.stl id:0 copy 0
;WIPE_START
G1 F8640.000
G1 X100.091 Y66.897 E-0.18232
G1 X100.743 Y66.563 E-0.16907
G1 X101.465 Y66.443 E-0.16907
G1 X102.502 Y66.443 E-0.23955
;WIPE_END
G1 E-0.04000 F2100.000
G1 Z0.600 F10800.000
G1 X102.839 Y70.678
G1 Z0.200
G1 E0.80000 F2100.000
;TYPE:Perimeter
G1 F1200.000
G1 X103.455 Y71.139 E0.02413
G1 X120.295 Y82.804 E0.64231
G1 X121.285 Y82.504 E0.03244
G1 X125.000 Y82.138 E0.11704
G1 X128.715 Y82.504 E0.11704
G1 X129.705 Y82.804 E0.03244
G1 X146.545 Y71.139 E0.64231
G1 X147.162 Y70.678 E0.02415
G1 X146.909 Y71.420 E0.02459
G1 X141.037 Y90.981 E0.64037
G1 X142.593 Y93.893 E0.10352
G1 X143.677 Y97.465 E0.11704
G1 X143.923 Y99.971 E0.07894
G1 X160.224 Y112.384 E0.64241
G1 X160.858 Y112.831 E0.02433
G1 X160.082 Y112.821 E0.02432
G1 X139.584 Y113.282 E0.64288
G1 X138.465 Y114.645 E0.05530
G1 X135.579 Y117.014 E0.11704
G1 X131.944 Y118.956 E0.12923
G1 X125.246 Y138.097 E0.63583
G1 X125.000 Y138.888 E0.02598
G1 X124.754 Y138.097 E0.02598
G1 X118.056 Y118.956 E0.63583
G1 X114.421 Y117.014 E0.12923
G1 X111.535 Y114.645 E0.11704
G1 X110.416 Y113.282 E0.05530
G1 X89.918 Y112.821 E0.64288
M73 P2 R24
M73 Q2 S24
G1 X89.142 Y112.831 E0.02432
G1 X89.776 Y112.384 E0.02433
G1 X106.077 Y99.971 E0.64241
G1 X106.323 Y97.465 E0.07894
G1 X107.407 Y93.893 E0.11704
G1 X108.963 Y90.981 E0.10352
G1 X103.087 Y71.408 E0.64078
G1 X102.861 Y70.734 E0.02228
;WIPE_START
G1 F8640.000
G1 X103.455 Y71.139 E-0.16610
G1 X105.570 Y72.604 E-0.59390
;WIPE_END
G1 E-0.04000 F2100.000
G1 Z0.600 F10800.000
G1 X105.718 Y99.770
G1 Z0.200
G1 E0.80000 F2100.000
;TYPE:External perimeter
G1 F1200.000
G1 X105.952 Y97.391 E0.07495
G1 X107.057 Y93.748 E0.11937
G1 X108.558 Y90.941 E0.09980
G1 X102.726 Y71.519 E0.63582
G1 X102.576 Y71.043 E0.01564
G1 X102.391 Y70.568 E0.01600
G1 X102.159 Y70.121 E0.01580
G1 X101.968 Y69.686 E0.01487
G1 X101.862 Y69.334 E0.01154
G1 X102.165 Y69.543 E0.01153
G1 X102.519 Y69.859 E0.01487
G1 X102.871 Y70.218 E0.01579
G1 X103.267 Y70.541 E0.01599
G1 X103.672 Y70.830 E0.01563
G1 X120.360 Y82.390 E0.63651
G1 X121.211 Y82.132 E0.02789
G1 X125.000 Y81.759 E0.11937
G1 X128.789 Y82.132 E0.11937
G1 X129.640 Y82.390 E0.02789
G1 X146.328 Y70.830 E0.63651
G1 X146.733 Y70.541 E0.01563
G1 X147.129 Y70.218 E0.01599
G1 X147.481 Y69.859 E0.01579
G1 X147.835 Y69.543 E0.01487
G1 X148.138 Y69.334 E0.01153
G1 X148.031 Y69.690 E0.01166
G1 X147.837 Y70.126 E0.01496
G1 X147.605 Y70.576 E0.01587
G1 X147.421 Y71.054 E0.01605
G1 X147.270 Y71.531 E0.01570
G1 X141.442 Y90.941 E0.63541
G1 X142.943 Y93.748 E0.09980
G1 X144.048 Y97.391 E0.11937
G1 X144.282 Y99.770 E0.07495
G1 X160.450 Y112.082 E0.63717
G1 X160.852 Y112.379 E0.01566
G1 X161.282 Y112.656 E0.01602
G1 X161.733 Y112.881 E0.01582
G1 X162.144 Y113.121 E0.01491
G1 X162.438 Y113.345 E0.01159
G1 X162.068 Y113.353 E0.01158
G1 X161.596 Y113.305 E0.01490
G1 X161.098 Y113.222 E0.01582
G1 X160.588 Y113.194 E0.01602
G1 X160.088 Y113.198 E0.01566
G1 X139.766 Y113.655 E0.63737
G1 X138.733 Y114.913 E0.05103
G1 X135.790 Y117.329 E0.11937
G1 X132.252 Y119.220 E0.12579
G1 X125.602 Y138.219 E0.63115
G1 X125.441 Y138.700 E0.01589
G1 X125.307 Y139.198 E0.01616
G1 X125.126 Y140.184 E0.03144
G1 X125.000 Y140.545 E0.01198
G1 X124.874 Y140.184 E0.01198
G1 X124.693 Y139.198 E0.03144
G1 X124.559 Y138.700 E0.01616
G1 X124.398 Y138.219 E0.01589
G1 X117.748 Y119.220 E0.63115
M73 P3 R24
M73 Q3 S24
G1 X114.210 Y117.329 E0.12579
G1 X111.267 Y114.913 E0.11937
G1 X110.234 Y113.655 E0.05103
G1 X89.912 Y113.198 E0.63737
G1 X89.412 Y113.194 E0.01566
G1 X88.902 Y113.222 E0.01602
G1 X88.404 Y113.305 E0.01582
G1 X87.932 Y113.353 E0.01490
G1 X87.562 Y113.345 E0.01158
G1 X87.856 Y113.121 E0.01159
G1 X88.267 Y112.881 E0.01491
G1 X88.718 Y112.656 E0.01582
G1 X89.148 Y112.379 E0.01602
G1 X89.550 Y112.082 E0.01566
G1 X105.670 Y99.807 E0.63529
G1 X106.113 Y99.710 F10800.000
;WIPE_START
G1 F8640.000
G1 X105.952 Y97.391 E-0.56149
G1 X106.201 Y96.569 E-0.19850
;WIPE_END
G1 E-0.04000 F2100.000
G1 Z0.600 F10800.000
G1 X90.129 Y112.511
G1 Z0.200
G1 E0.80000 F2100.000
;TYPE:Gap fill
;WIDTH:0.152016
G1 F1200.000
G1 X89.810 Y112.614 E0.00304
;WIPE_START
G1 F8640.000
G1 X90.129 Y112.511 E-0.07733
;WIPE_END
G1 E-0.72267 F2100.000
G1 Z0.600 F10800.000
G1 X88.855 Y112.925
G1 Z0.200
G1 E0.80000 F2100.000
;WIDTH:0.26907
G1 F1200.000
G1 X88.735 Y112.964 E0.00237
;WIDTH:0.231394
G1 X88.615 Y113.003 E0.00198
;WIDTH:0.193718
G1 X88.495 Y113.042 E0.00158
;WIDTH:0.156042
G1 X88.375 Y113.081 E0.00119
;WIDTH:0.118366
G1 X88.295 Y113.109 E0.00053
;WIPE_START
G1 F8640.000
G1 X88.375 Y113.081 E-0.01950
;WIPE_END
G1 E-0.78050 F2100.000
G1 Z0.600 F10800.000
G1 X125.000 Y137.846
G1 Z0.200
G1 E0.80000 F2100.000
;WIDTH:0.18561
G1 F1200.000
G1 X125.000 Y138.183 E0.00399
G1 X125.000 Y139.077 F10800.000
;WIDTH:0.272179
G1 F1200.000
G1 X125.000 Y139.236 E0.00303
;WIDTH:0.227464
G1 X125.000 Y139.395 E0.00244
;WIDTH:0.18275
G1 X125.000 Y139.554 E0.00185
;WIDTH:0.138035
G1 X125.000 Y139.712 E0.00126
;WIPE_START
G1 F8640.000
G1 X125.000 Y139.554 E-0.03669
;WIPE_END
G1 E-0.76331 F2100.000
G1 Z0.600 F10800.000
G1 X159.871 Y112.511
G1 Z0.200
G1 E0.80000 F2100.000
;WIDTH:0.151479
G1 F1200.000
G1 X160.190 Y112.614 E0.00302
;WIPE_START
G1 F8640.000
G1 X159.871 Y112.511 E-0.07733
;WIPE_END
G1 E-0.72267 F2100.000
G1 Z0.600 F10800.000
G1 X161.145 Y112.925
G1 Z0.200
G1 E0.80000 F2100.000
;WIDTH:0.231394
G1 F1200.000
G1 X161.385 Y113.003 E0.00396
;WIDTH:0.118366
G1 X161.705 Y113.109 E0.00211
;WIPE_START
G1 F8640.000
G1 X161.385 Y113.003 E-0.07781
;WIPE_END
G1 E-0.72219 F2100.000
G1 Z0.600 F10800.000
G1 X146.551 Y71.517
G1 Z0.200
G1 E0.80000 F2100.000
;WIDTH:0.148014
G1 F1200.000
G1 X146.749 Y71.246 E0.00293
G1 X145.890 Y71.730 F10800.000
;TYPE:Solid infill
;WIDTH:0.421328
G1 F1200.000
G1 X146.381 Y72.221 E0.02185
G1 X146.257 Y72.633 E0.01352
G1 X145.696 Y72.071 E0.02499
G1 X145.379 Y72.290 E0.01210
G1 X146.133 Y73.044 E0.03355
G1 X146.010 Y73.456 E0.01352
G1 X145.063 Y72.509 E0.04212
G1 X144.747 Y72.728 E0.01210
G1 X145.886 Y73.867 E0.05068
G1 X145.762 Y74.279 E0.01352
G1 X144.431 Y72.947 E0.05924
G1 X144.115 Y73.166 E0.01210
G1 X145.639 Y74.690 E0.06781
G1 X145.515 Y75.101 E0.01352
G1 X143.799 Y73.385 E0.07637
G1 X143.482 Y73.604 E0.01210
G1 X145.391 Y75.513 E0.08494
G1 X145.268 Y75.924 E0.01352
G1 X143.166 Y73.823 E0.09350
G1 X142.850 Y74.042 E0.01210
G1 X145.144 Y76.336 E0.10206
G1 X145.020 Y76.747 E0.01352
G1 X142.534 Y74.261 E0.11063
G1 X142.218 Y74.480 E0.01210
G1 X144.896 Y77.159 E0.11919
G1 X144.773 Y77.570 E0.01352
G1 X141.902 Y74.699 E0.12776
G1 X141.586 Y74.918 E0.01210
G1 X144.649 Y77.982 E0.13632
G1 X144.525 Y78.393 E0.01352
G1 X141.269 Y75.137 E0.14488
G1 X140.953 Y75.356 E0.01210
G1 X144.402 Y78.805 E0.15345
G1 X144.278 Y79.216 E0.01352
G1 X140.637 Y75.575 E0.16201
G1 X140.321 Y75.794 E0.01210
G1 X144.154 Y79.628 E0.17058
G1 X144.031 Y80.039 E0.01352
G1 X140.005 Y76.013 E0.17914
G1 X139.689 Y76.232 E0.01210
G1 X143.907 Y80.450 E0.18770
G1 X143.783 Y80.862 E0.01352
G1 X139.373 Y76.451 E0.19627
G1 X139.056 Y76.670 E0.01210
G1 X143.660 Y81.273 E0.20483
G1 X143.536 Y81.685 E0.01352
G1 X138.740 Y76.889 E0.21340
G1 X138.424 Y77.108 E0.01210
G1 X143.412 Y82.096 E0.22196
G1 X143.289 Y82.508 E0.01352
G1 X138.108 Y77.327 E0.23052
G1 X137.792 Y77.546 E0.01210
G1 X143.165 Y82.919 E0.23909
G1 X143.041 Y83.331 E0.01352
G1 X137.476 Y77.765 E0.24765
G1 X137.160 Y77.984 E0.01210
G1 X142.917 Y83.742 E0.25622
G1 X142.794 Y84.154 E0.01352
G1 X136.843 Y78.203 E0.26478
G1 X136.527 Y78.422 E0.01210
G1 X142.670 Y84.565 E0.27334
G1 X142.546 Y84.977 E0.01352
M73 Q4 S24
G1 X136.211 Y78.641 E0.28191
M73 P4 R24
G1 X135.895 Y78.860 E0.01210
G1 X142.423 Y85.388 E0.29047
G1 X142.299 Y85.799 E0.01352
G1 X135.579 Y79.079 E0.29904
G1 X135.263 Y79.298 E0.01210
G1 X142.175 Y86.211 E0.30760
G1 X142.052 Y86.622 E0.01352
G1 X134.947 Y79.517 E0.31616
G1 X134.630 Y79.736 E0.01210
G1 X141.928 Y87.034 E0.32473
G1 X141.804 Y87.445 E0.01352
G1 X134.314 Y79.955 E0.33329
G1 X133.998 Y80.174 E0.01210
G1 X141.681 Y87.857 E0.34186
G1 X141.557 Y88.268 E0.01352
G1 X133.682 Y80.393 E0.35042
G1 X133.366 Y80.612 E0.01210
G1 X141.433 Y88.680 E0.35898
G1 X141.310 Y89.091 E0.01352
G1 X133.050 Y80.831 E0.36755
G1 X132.733 Y81.050 E0.01210
G1 X141.186 Y89.503 E0.37611
G1 X141.062 Y89.914 E0.01352
G1 X132.417 Y81.269 E0.38468
G1 X132.101 Y81.488 E0.01210
G1 X140.938 Y90.326 E0.39324
G1 X140.815 Y90.737 E0.01352
G1 X131.785 Y81.707 E0.40180
G1 X131.469 Y81.926 E0.01210
G1 X140.936 Y91.394 E0.42128
G1 X141.551 Y92.543 E0.04102
G1 X131.153 Y82.145 E0.46269
G1 X130.837 Y82.364 E0.01210
G1 X142.165 Y93.693 E0.50410
G1 X142.330 Y94.002 E0.01102
G1 X142.501 Y94.564 E0.01847
G1 X130.520 Y82.583 E0.53310
G1 X130.204 Y82.802 E0.01210
G1 X142.734 Y95.332 E0.55754
G1 X142.967 Y96.100 E0.02526
G1 X129.888 Y83.021 E0.58197
G1 X129.754 Y83.114 E0.00515
G1 X129.312 Y82.980 E0.01452
G1 X143.200 Y96.868 E0.61797
M73 P4 R23
G1 X143.398 Y97.521 E0.02146
G1 X143.407 Y97.610 E0.00282
G1 X128.570 Y82.774 E0.66019
M73 P5 R23
M73 Q5 S24
G1 X127.977 Y82.715 E0.01877
G1 X143.465 Y98.204 E0.68920
M73 Q5 S23
G1 X143.524 Y98.797 E0.01877
G1 X127.383 Y82.657 E0.71822
G1 X126.789 Y82.598 E0.01877
G1 X143.771 Y99.580 E0.75565
;WIPE_START
G1 F8640.000
G1 X141.444 Y97.253 E-0.76000
;WIPE_END
G1 E-0.04000 F2100.000
G1 Z0.600 F10800.000
G1 X156.738 Y109.872
G1 Z0.200
G1 E0.80000 F2100.000
G1 F1200.000
G1 X159.420 Y112.553 E0.11931
G1 X158.896 Y112.565 E0.01647
G1 X155.389 Y109.057 E0.15607
G1 X153.145 Y107.349 E0.08873
G1 X158.373 Y112.576 E0.23262
G1 X157.850 Y112.588 E0.01647
G1 X150.902 Y105.640 E0.30917
G1 X148.658 Y103.932 E0.08873
G1 X157.326 Y112.600 E0.38572
G1 X156.803 Y112.612 E0.01647
G1 X145.520 Y101.329 E0.50206
;WIPE_START
G1 F8640.000
G1 X147.847 Y103.656 E-0.76000
;WIPE_END
G1 E-0.04000 F2100.000
G1 Z0.600 F10800.000
G1 X156.446 Y112.790
G1 Z0.200
G1 E0.80000 F2100.000
G1 F1200.000
G1 X126.196 Y82.540 E1.34605
G1 X125.602 Y82.481 E0.01877
G1 X155.756 Y112.635 E1.34179
G1 X155.233 Y112.647 E0.01647
G1 X125.009 Y82.423 E1.34491
M73 P6 R23
M73 Q6 S23
G1 X124.520 Y82.469 E0.01545
G1 X154.709 Y112.659 E1.34337
G1 X154.186 Y112.671 E0.01647
G1 X124.033 Y82.517 E1.34176
G1 X123.546 Y82.565 E0.01540
G1 X153.663 Y112.682 E1.34015
G1 X153.139 Y112.694 E0.01647
G1 X123.058 Y82.613 E1.33854
G1 X122.571 Y82.661 E0.01540
G1 X152.616 Y112.706 E1.33692
G1 X152.093 Y112.718 E0.01647
G1 X122.084 Y82.709 E1.33531
G1 X121.597 Y82.757 E0.01540
G1 X151.569 Y112.730 E1.33370
M73 P7 R23
M73 Q7 S23
G1 X151.046 Y112.741 E0.01647
G1 X121.146 Y82.841 E1.33048
G1 X120.735 Y82.966 E0.01350
G1 X150.522 Y112.753 E1.32546
G1 X149.999 Y112.765 E0.01647
G1 X120.325 Y83.091 E1.32044
G1 X120.246 Y83.114 E0.00258
G1 X118.838 Y82.139 E0.05392
G1 X149.476 Y112.777 E1.36332
G1 X148.952 Y112.788 E0.01647
G1 X117.096 Y80.932 E1.41753
G1 X115.355 Y79.726 E0.06666
G1 X148.429 Y112.800 E1.47174
G1 X147.906 Y112.812 E0.01647
G1 X113.613 Y78.519 E1.52595
M73 P8 R23
M73 Q8 S23
G1 X111.871 Y77.313 E0.06666
G1 X147.382 Y112.824 E1.58016
G1 X146.859 Y112.835 E0.01647
G1 X110.130 Y76.106 E1.63436
G1 X108.388 Y74.900 E0.06666
G1 X146.335 Y112.847 E1.68857
G1 X145.812 Y112.859 E0.01647
G1 X106.647 Y73.694 E1.74278
G1 X104.905 Y72.487 E0.06666
G1 X145.289 Y112.871 E1.79699
M73 P9 R22
M73 Q9 S23
G1 X144.765 Y112.883 E0.01647
G1 X103.623 Y71.740 E1.83076
M73 Q9 S22
G1 X103.507 Y71.824 E0.00450
G1 X103.651 Y72.303 E0.01574
G1 X144.242 Y112.894 E1.80621
G1 X143.719 Y112.906 E0.01647
G1 X103.881 Y73.068 E1.77270
G1 X104.110 Y73.833 E0.02512
G1 X143.195 Y112.918 E1.73920
G1 X142.672 Y112.930 E0.01647
G1 X104.340 Y74.598 E1.70569
M73 Q10 S22
G1 X104.569 Y75.362 E0.02512
G1 X142.148 Y112.941 E1.67218
M73 P10 R22
G1 X141.625 Y112.953 E0.01647
G1 X104.799 Y76.127 E1.63868
G1 X105.029 Y76.892 E0.02512
G1 X141.102 Y112.965 E1.60517
G1 X140.578 Y112.977 E0.01647
G1 X105.258 Y77.657 E1.57167
G1 X105.488 Y78.421 E0.02512
G1 X140.055 Y112.989 E1.53816
G1 X139.532 Y113.000 E0.01647
G1 X105.717 Y79.186 E1.50465
M73 P11 R22
M73 Q11 S22
G1 X105.947 Y79.951 E0.02512
G1 X139.245 Y113.249 E1.48169
G1 X139.004 Y113.543 E0.01196
G1 X106.177 Y80.716 E1.46074
G1 X106.406 Y81.480 E0.02512
G1 X138.763 Y113.837 E1.43979
G1 X138.521 Y114.131 E0.01196
G1 X106.636 Y82.245 E1.41884
G1 X106.865 Y83.010 E0.02512
G1 X138.280 Y114.425 E1.39789
G1 X137.990 Y114.670 E0.01195
G1 X107.095 Y83.775 E1.37475
G1 X107.325 Y84.539 E0.02512
G1 X137.696 Y114.911 E1.35146
M73 P12 R22
M73 Q12 S22
G1 X137.402 Y115.152 E0.01196
G1 X107.554 Y85.304 E1.32816
G1 X107.784 Y86.069 E0.02512
G1 X137.108 Y115.393 E1.30487
G1 X136.814 Y115.634 E0.01196
G1 X108.013 Y86.834 E1.28157
G1 X108.243 Y87.598 E0.02512
G1 X136.520 Y115.876 E1.25827
G1 X136.226 Y116.117 E0.01196
G1 X108.473 Y88.363 E1.23498
G1 X108.702 Y89.128 E0.02512
G1 X135.932 Y116.358 E1.21168
G1 X135.638 Y116.599 E0.01196
G1 X108.932 Y89.893 E1.18839
M73 P13 R21
M73 Q13 S22
G1 X109.161 Y90.657 E0.02512
G1 X135.330 Y116.826 E1.16445
M73 Q13 S21
G1 X134.981 Y117.013 E0.01244
G1 X109.168 Y91.199 E1.14865
G1 X108.981 Y91.548 E0.01244
G1 X134.633 Y117.199 E1.14143
G1 X134.284 Y117.385 E0.01244
G1 X108.795 Y91.896 E1.13420
G1 X108.609 Y92.245 E0.01244
G1 X133.935 Y117.572 E1.12698
G1 X133.586 Y117.758 E0.01244
G1 X108.422 Y92.594 E1.11976
G1 X108.236 Y92.943 E0.01244
G1 X133.238 Y117.945 E1.11253
G1 X132.889 Y118.131 E0.01244
G1 X108.049 Y93.291 E1.10531
M73 P14 R21
M73 Q14 S21
G1 X107.863 Y93.640 E0.01244
G1 X132.540 Y118.317 E1.09808
G1 X132.191 Y118.504 E0.01244
